X:1
T: Mullingar Races
R: reel
M: C|
L: 1/8
Z: John Kerr <John_V._Kerr@AMSINC.COM> irtrad-l 2001-8-8
S: A tape of Catherine McEvoy's playing at Gaelic Roots a couple of years ago.
K: D
DEFD EAA2 | DEFD EFGA | f2ef dAAF | BGAF E3z |
DEFD EAA2 | DEFD EFGA | f2ef d2AG | FGEF D3z :|
d2fd Addf | afef dAAB | d2fd Adfd | Beed Beef |
d2fd Addf | afef dBBd | f2ef d2AG | FGEF D3z :||
